status/symbolic/network-cellular-no-route-symbolic.svg

<?xml version="1.0" encoding="UTF-8" standalone="no"?>
<svg
   width="16"
   height="16"
   version="1.1"
   id="svg4"
   sodipodi:docname="network-cellular-no-route-symbolic.svg"
   inkscape:version="1.2.1 (9c6d41e410, 2022-07-14, custom)"
   xmlns:inkscape="http://www.inkscape.org/namespaces/inkscape"
   xmlns:sodipodi="http://sodipodi.sourceforge.net/DTD/sodipodi-0.dtd"
   xmlns="http://www.w3.org/2000/svg"
   xmlns:svg="http://www.w3.org/2000/svg">
  <defs
     id="defs8" />
  <sodipodi:namedview
     id="namedview6"
     pagecolor="#ffffff"
     bordercolor="#000000"
     borderopacity="0.25"
     inkscape:showpageshadow="2"
     inkscape:pageopacity="0.0"
     inkscape:pagecheckerboard="0"
     inkscape:deskcolor="#d1d1d1"
     showgrid="false"
     inkscape:zoom="50.1875"
     inkscape:cx="7.9900374"
     inkscape:cy="7.9701121"
     inkscape:window-width="1554"
     inkscape:window-height="994"
     inkscape:window-x="182"
     inkscape:window-y="42"
     inkscape:window-maximized="1"
     inkscape:current-layer="svg4" />
  <path
     style="fill:#5c616c"
     d="M 14.819298,1.6419862 14.376966,1.6230341 1.7113321,14.288668 1.7008022,14.781193 1.9456506,15 H 14.43883 L 14.734283,14.644756 15,14.40522 V 1.8115219 Z M 12,7 c 1.1,0 2,0.9 2,2 0,1.1 -0.9,2 -2,2 v 1 h -1 v -2 h 1 c 0.55,0 1,-0.45 1,-1 0,-0.55 -0.45,-1 -1,-1 -0.55,0 -1,0.45 -1,1 h -1 c 0,-1.1 0.9,-2 2,-2 z m -1,6 h 1 v 1 h -1 z"
     id="path2"
     sodipodi:nodetypes="ccccccccccssccccsssccsccccc" />
</svg>

<svg xmlns="http://www.w3.org/2000/svg" width="16" height="16" version="1.1">
 <path style="fill:#5c616c" d="M 15,1 1,15 H 15 Z M 12,7 C 13.1,7 14,7.9 14,9 14,10.1 13.1,11 12,11 V 12 H 11 V 10 H 12 C 12.55,10 13,9.55 13,9 13,8.45 12.55,8 12,8 11.45,8 11,8.45 11,9 H 10 C 10,7.9 10.9,7 12,7 Z M 11,13 H 12 V 14 H 11 Z"/>
</svg>
